apps/site/public/icons/technologies/turborepo-icon-only.svg

<svg width="48" height="48" viewBox="0 0 48 48" fill="none" xmlns="http://www.w3.org/2000/svg">
<path d="M23.9829 10.0498C16.2908 10.0498 10.0327 16.3079 10.0327 24C10.0327 31.6921 16.2908 37.9502 23.9829 37.9502C31.675 37.9502 37.9331 31.6921 37.9331 24C37.9331 16.3079 31.675 10.0498 23.9829 10.0498ZM23.9829 31.2193C19.9953 31.2193 16.7636 27.9876 16.7636 24C16.7636 20.0124 19.9953 16.7807 23.9829 16.7807C27.9706 16.7807 31.2022 20.0124 31.2022 24C31.2022 27.9876 27.9706 31.2193 23.9829 31.2193Z" fill="#161D2B"/>
<path fill-rule="evenodd" clip-rule="evenodd" d="M25.1522 7.75855V2.54996C36.4734 3.15525 45.467 12.5281 45.467 24C45.467 35.4719 36.4734 44.8422 25.1522 45.4501V40.2415C33.5899 39.6388 40.2714 32.5884 40.2714 24C40.2714 15.4117 33.5899 8.36124 25.1522 7.75855ZM11.6801 34.651C9.44336 32.0687 8.00158 28.7799 7.7444 25.169H2.5332C2.80337 30.2217 4.82447 34.8068 7.99119 38.3372L11.6775 34.651H11.6801ZM22.8143 45.4501V40.2415C19.2007 39.9843 15.9119 38.5451 13.3297 36.3058L9.64339 39.9921C13.1764 43.1614 17.7615 45.1799 22.8117 45.4501H22.8143Z" fill="url(#paint0_linear_6109_39616)"/>
<defs>
<linearGradient id="paint0_linear_6109_39616" x1="25.9941" y1="5.56628" x2="4.87923" y2="26.6812" gradientUnits="userSpaceOnUse">
<stop stop-color="#0096FF"/>
<stop offset="1" stop-color="#FF1E56"/>
</linearGradient>
</defs>
</svg>

<svg xmlns="http://www.w3.org/2000/svg" width="48" height="48" fill="none" viewBox="0 0 48 48"><path fill="#161d2b" d="M23.983 10.05c-7.692 0-13.95 6.258-13.95 13.95s6.258 13.95 13.95 13.95 13.95-6.258 13.95-13.95-6.258-13.95-13.95-13.95m0 21.17a7.22 7.22 0 0 1-7.22-7.22 7.22 7.22 0 0 1 7.22-7.22 7.22 7.22 0 0 1 7.22 7.22 7.22 7.22 0 0 1-7.22 7.22"/><path fill="url(#a)" fill-rule="evenodd" d="M25.152 7.759V2.55c11.321.605 20.315 9.978 20.315 21.45s-8.994 20.842-20.315 21.45v-5.209c8.438-.602 15.12-7.653 15.12-16.241S33.59 8.361 25.151 7.759M11.68 34.65a16.22 16.22 0 0 1-3.936-9.482h-5.21A21.4 21.4 0 0 0 7.99 38.337l3.687-3.686zm11.134 10.8v-5.21a16.2 16.2 0 0 1-9.484-3.935l-3.687 3.686a21.4 21.4 0 0 0 13.169 5.458z" clip-rule="evenodd"/><defs><linearGradient id="a" x1="25.994" x2="4.879" y1="5.566" y2="26.681" gradientUnits="userSpaceOnUse"><stop stop-color="#0096ff"/><stop offset="1" stop-color="#ff1e56"/></linearGradient></defs></svg>
